X:1
T:Reuben, 86.86.88.88
T:Reuben, 86.86.88.88
T:Asa Hull, 1885
T:Public Domain Courtesy of the Cyber Hymnal™
C:Asa Hull, 1885
Z:Public Domain
Z:Courtesy of the Cyber Hymnal™
%%score ( 1 2 ) ( 3 4 )
L:1/8
Q:1/4=95
M:3/4
K:D
V:1 treble 
V:2 treble 
V:3 bass 
V:4 bass 
V:1
 [FA][DF] [EG] | [FA]3 [Fd] [Ac][GB] | [FA]3 [FB] [EG][CA] | [DF]4 [D^G]2 | [CA]3 [FA] [DF][EG] | %5
 [FA]3 [Af] [Ae][Ad] | c A3 [Ge]2 | [Fd]3 [FA] [DFf][CEe] | [Dd]3 [FA] [DF][Fd] | %9
 [Ec]3 [EB] [EG][GB] | [FA]3 [DF] D[DF] | [CE]3 [EG] [DF][CE] | [DF]3 [FA] [DF][Fd] | %13
 [Ec]3 [EB] [EG][GB] | [FA]3 [Fd] [Fd][Gd] | [Fd]3 A FA | !fermata!D3 |] %17
V:2
 x3 | x6 | x6 | x6 | x6 | x6 | G4 x2 | x6 | x6 | x6 | x4 D x | x6 | x6 | x6 | x6 | x3 A FA | D3 |] %17
V:3
 [D,D][D,A,] [D,A,] | [D,D]3 [D,A,] [D,A,][D,D] | [D,D]3 [D,A,] [A,,A,][A,,A,] | [D,A,]4 E,2 | %4
 [A,,E,]3 [D,D] [D,A,][D,A,] | [D,D]3 [D,D] [E,C][F,D] | [G,D]4 [G,B,]2 | A,3 A, A,[A,,G,] | %8
 [D,F,]3 [D,D] [D,A,][D,A,] | [A,,A,]3 [A,,A,] [A,,A,][A,,C] | [D,D]3 [D,A,] [D,F,][D,A,] | %11
 [A,,A,]3 [A,,A,] [A,,A,][A,,A,] | [D,A,]3 [D,D] [D,A,][D,A,] | [A,,A,]3 [A,,A,] [A,,A,][A,,C] | %14
 [D,D]3 [D,D] [B,,B,D][_B,,_B,D] | [A,,A,D]3 A, F,A, | !fermata!D,3 |] %17
V:4
 x3 | x6 | x6 | x4 E,2 | x6 | x6 | x6 | A,3 A, A, x | x6 | x6 | x6 | x6 | x6 | x6 | x6 | %15
 x3 A, F,A, | D,3 |] %17

